X:599
T: Huangyandong da shengli
N: C2105
O: China, Shanxi Zuoquan
S: I, 302]
N: Han
R: Xiaodiao, Liangxianghao]
M: 2/4
L: 1/16
K: F
A3cd2f2 | d2c2B2A2 | c3FG2A2 | c3fd2A2
c2F2E2D2 | F2C2D2C2 | F2C2D2F2 | C8
G2F2E2D2 | F2C2C4 | c3BA2G2 | A3cc2G2 | A3cc2G2
A2F2E2D2 | F2C2D2F2 | C8

